X: 4112
T: Blooming Meadows, The
R: jig
M: 6/8
K: Gmajor
D2G G2A|~B3 cAG|F2D ~D3|F2G AFD|
DED G2A|BAG ABc|ded cAF|1 G3 GFE:|2 G3 GBd||
g2B d3|g2a bag|f2d ded|f2g afd|
g2d dBd|g2a bag|fed cAF|G4 Bd|
g2d dBd|g2a bag|f2d ded|f2g afd|
g2e e2d|fed ^cde|fed cAF|G3 G2A||
[B,B]2d [Cc]2A|BAG A2G|F2D ~D3|F2G AFD|
[B,B]2d [Cc]2A|BAG ABc|ded cAF|1 G3 G2A:|2 GFE||

